svg/arrow_expand_left.svg

<svg xmlns="http://www.w3.org/2000/svg" viewBox="0 0 24 24"><path d="M20 22h2V2h-2v9H5.83l5.5-5.5-1.41-1.42L2 12l7.92 7.92 1.41-1.42-5.5-5.5H20z"/></svg>

<?xml version="1.0" encoding="UTF-8"?><!DOCTYPE svg PUBLIC "-//W3C//DTD SVG 1.1//EN" "http://www.w3.org/Graphics/SVG/1.1/DTD/svg11.dtd"><svg xmlns="http://www.w3.org/2000/svg" xmlns:xlink="http://www.w3.org/1999/xlink" version="1.1" id="mdi-arrow-expand-left" width="24" height="24" viewBox="0 0 24 24"><path d="M20,22H22V2H20V11H5.83L11.33,5.5L9.92,4.08L2,12L9.92,19.92L11.33,18.5L5.83,13H20V22Z" /></svg>
